icons/evolbuntu-dark-fallback/actions/24/view-list.svg

<?xml version="1.0" encoding="UTF-8" standalone="no"?>
<!-- Created with Inkscape (http://www.inkscape.org/) -->

<svg
   xmlns:dc="http://purl.org/dc/elements/1.1/"
   xmlns:cc="http://creativecommons.org/ns#"
   xmlns:rdf="http://www.w3.org/1999/02/22-rdf-syntax-ns#"
   xmlns:svg="http://www.w3.org/2000/svg"
   xmlns="http://www.w3.org/2000/svg"
   xmlns:sodipodi="http://sodipodi.sourceforge.net/DTD/sodipodi-0.dtd"
   xmlns:inkscape="http://www.inkscape.org/namespaces/inkscape"
   width="24"
   height="24"
   id="svg13094"
   version="1.1"
   inkscape:version="0.91+devel r"
   sodipodi:docname="view-list.svg">
  <sodipodi:namedview
     id="base"
     pagecolor="#ffffff"
     bordercolor="#666666"
     borderopacity="1.0"
     inkscape:pageopacity="0.0"
     inkscape:pageshadow="2"
     inkscape:zoom="32.000001"
     inkscape:cx="7.6808562"
     inkscape:cy="11.297893"
     inkscape:document-units="px"
     inkscape:current-layer="svg13094"
     showgrid="true"
     inkscape:snap-bbox="true"
     inkscape:bbox-paths="true"
     inkscape:bbox-nodes="true"
     inkscape:snap-bbox-edge-midpoints="true"
     inkscape:snap-bbox-midpoints="true"
     inkscape:object-paths="true"
     inkscape:snap-intersection-paths="true"
     inkscape:object-nodes="true"
     inkscape:snap-smooth-nodes="true"
     inkscape:snap-midpoints="true"
     inkscape:snap-object-midpoints="true"
     inkscape:snap-center="true"
     showguides="true"
     inkscape:guide-bbox="true"
     inkscape:window-width="1920"
     inkscape:window-height="1027"
     inkscape:window-x="-10"
     inkscape:window-y="31"
     inkscape:window-maximized="1"
     inkscape:snap-global="true"
     fit-margin-top="0"
     fit-margin-left="0"
     fit-margin-right="0"
     fit-margin-bottom="0"
     showborder="true"
     inkscape:showpageshadow="false">
    <inkscape:grid
       type="xygrid"
       id="grid3075"
       empspacing="5"
       visible="true"
       enabled="true"
       snapvisiblegridlinesonly="true"
       originx="1.6362304e-08px"
       originy="4.9999976px" />
  </sodipodi:namedview>
  <defs
     id="defs13096" />
  <metadata
     id="metadata13099">
    <rdf:RDF>
      <cc:Work
         rdf:about="">
        <dc:format>image/svg+xml</dc:format>
        <dc:type
           rdf:resource="http://purl.org/dc/dcmitype/StillImage" />
        <dc:title></dc:title>
      </cc:Work>
    </rdf:RDF>
  </metadata>
  <path
     style="color:#000000;display:inline;overflow:visible;visibility:visible;fill:#434a54;fill-opacity:0.6745098;fill-rule:nonzero;stroke:none;stroke-width:2;marker:none;enable-background:accumulate"
     d="M 5,3 C 4.446,3 4,3.446 4,4 L 4,6 C 4,6.554 4.446,7 5,7 L 7,7 C 7.554,7 8,6.554 8,6 L 8,4 C 8,3.446 7.554,3 7,3 L 5,3 Z M 6,4 C 6.5522847,4 7,4.4477153 7,5 7,5.5522847 6.5522847,6 6,6 5.4477153,6 5,5.5522847 5,5 5,4.4477153 5.4477153,4 6,4 Z m 3,0 0,1 1,0 0,-1 -1,0 z m 1,1 0,1 1,0 0,-1 -1,0 z m 1,0 1,0 0,-1 -1,0 0,1 z m 1,0 0,1 1,0 0,-1 -1,0 z m 1,0 1,0 0,-1 -1,0 0,1 z m 1,0 0,1 1,0 0,-1 -1,0 z m 1,0 1,0 0,-1 -1,0 0,1 z m 1,0 0,1 1,0 0,-1 -1,0 z m 1,0 1,0 0,-1 -1,0 0,1 z m 1,0 0,1 1,0 0,-1 -1,0 z m 1,0 1,0 0,-1 -1,0 0,1 z M 5,10 c -0.554,0 -1,0.446 -1,1 l 0,2 c 0,0.554 0.446,1 1,1 l 2,0 c 0.554,0 1,-0.446 1,-1 L 8,11 C 8,10.446 7.554,10 7,10 l -2,0 z m 1,1 c 0.5522847,0 1,0.447715 1,1 0,0.552285 -0.4477153,1 -1,1 -0.5522847,0 -1,-0.447715 -1,-1 0,-0.552285 0.4477153,-1 1,-1 z m 3,0 0,1 1,0 0,-1 -1,0 z m 1,1 0,1 1,0 0,-1 -1,0 z m 1,0 1,0 0,-1 -1,0 0,1 z m 1,0 0,1 1,0 0,-1 -1,0 z m 1,0 1,0 0,-1 -1,0 0,1 z m 1,0 0,1 1,0 0,-1 -1,0 z m 1,0 1,0 0,-1 -1,0 0,1 z m 1,0 0,1 1,0 0,-1 -1,0 z m 1,0 1,0 0,-1 -1,0 0,1 z m 1,0 0,1 1,0 0,-1 -1,0 z m 1,0 1,0 0,-1 -1,0 0,1 z M 5,17 c -0.554,0 -1,0.446 -1,1 l 0,2 c 0,0.554 0.446,1 1,1 l 2,0 c 0.554,0 1,-0.446 1,-1 L 8,18 C 8,17.446 7.554,17 7,17 l -2,0 z m 1,1 c 0.5522847,0 1,0.447716 1,1 0,0.552285 -0.4477153,1 -1,1 -0.5522847,0 -1,-0.447715 -1,-1 0,-0.552284 0.4477153,-1 1,-1 z m 3,0 0,1 1,0 0,-1 -1,0 z m 1,1 0,1 1,0 0,-1 -1,0 z m 1,0 1,0 0,-1 -1,0 0,1 z m 1,0 0,1 1,0 0,-1 -1,0 z m 1,0 1,0 0,-1 -1,0 0,1 z m 1,0 0,1 1,0 0,-1 -1,0 z m 1,0 1,0 0,-1 -1,0 0,1 z m 1,0 0,1 1,0 0,-1 -1,0 z m 1,0 1,0 0,-1 -1,0 0,1 z m 1,0 0,1 1,0 0,-1 -1,0 z m 1,0 1,0 0,-1 -1,0 0,1 z"
     id="path3915"
     inkscape:connector-curvature="0" />
  <path
     style="color:#000000;display:inline;overflow:visible;visibility:visible;fill:#d1d4d6;fill-opacity:0.74329164;fill-rule:nonzero;stroke:none;stroke-width:2;marker:none;enable-background:accumulate"
     d="M 6,4 C 5.4477153,4 5,4.4477153 5,5 5,5.5522847 5.4477153,6 6,6 6.5522847,6 7,5.5522847 7,5 7,4.4477153 6.5522847,4 6,4 Z m 4,0 0,1 1,0 0,-1 -1,0 z m 1,1 0,1 1,0 0,-1 -1,0 z m 1,0 1,0 0,-1 -1,0 0,1 z m 1,0 0,1 1,0 0,-1 -1,0 z m 1,0 1,0 0,-1 -1,0 0,1 z m 1,0 0,1 1,0 0,-1 -1,0 z m 1,0 1,0 0,-1 -1,0 0,1 z m 1,0 0,1 1,0 0,-1 -1,0 z m 1,0 1,0 0,-1 -1,0 0,1 z m 1,0 0,1 1,0 0,-1 -1,0 z m -9,0 -1,0 0,1 1,0 0,-1 z m -4,6 c -0.5522847,0 -1,0.447715 -1,1 0,0.552285 0.4477153,1 1,1 0.5522847,0 1,-0.447715 1,-1 0,-0.552285 -0.4477153,-1 -1,-1 z m 4,0 0,1 1,0 0,-1 -1,0 z m 1,1 0,1 1,0 0,-1 -1,0 z m 1,0 1,0 0,-1 -1,0 0,1 z m 1,0 0,1 1,0 0,-1 -1,0 z m 1,0 1,0 0,-1 -1,0 0,1 z m 1,0 0,1 1,0 0,-1 -1,0 z m 1,0 1,0 0,-1 -1,0 0,1 z m 1,0 0,1 1,0 0,-1 -1,0 z m 1,0 1,0 0,-1 -1,0 0,1 z m 1,0 0,1 1,0 0,-1 -1,0 z m -9,0 -1,0 0,1 1,0 0,-1 z m -4,6 c -0.5522847,0 -1,0.447716 -1,1 0,0.552285 0.4477153,1 1,1 0.5522847,0 1,-0.447715 1,-1 0,-0.552284 -0.4477153,-1 -1,-1 z m 4,0 0,1 1,0 0,-1 -1,0 z m 1,1 0,1 1,0 0,-1 -1,0 z m 1,0 1,0 0,-1 -1,0 0,1 z m 1,0 0,1 1,0 0,-1 -1,0 z m 1,0 1,0 0,-1 -1,0 0,1 z m 1,0 0,1 1,0 0,-1 -1,0 z m 1,0 1,0 0,-1 -1,0 0,1 z m 1,0 0,1 1,0 0,-1 -1,0 z m 1,0 1,0 0,-1 -1,0 0,1 z m 1,0 0,1 1,0 0,-1 -1,0 z m -9,0 -1,0 0,1 1,0 0,-1 z"
     id="path3917"
     inkscape:connector-curvature="0" />
</svg>

<?xml version="1.0" encoding="UTF-8" standalone="no"?>
<!-- Created with Inkscape (http://www.inkscape.org/) -->

<svg
   xmlns:dc="http://purl.org/dc/elements/1.1/"
   xmlns:cc="http://creativecommons.org/ns#"
   xmlns:rdf="http://www.w3.org/1999/02/22-rdf-syntax-ns#"
   xmlns:svg="http://www.w3.org/2000/svg"
   xmlns="http://www.w3.org/2000/svg"
   xmlns:sodipodi="http://sodipodi.sourceforge.net/DTD/sodipodi-0.dtd"
   xmlns:inkscape="http://www.inkscape.org/namespaces/inkscape"
   width="24"
   height="24"
   id="svg13094"
   version="1.1"
   inkscape:version="0.48.3.1 r9886"
   sodipodi:docname="view-list.svg">
  <sodipodi:namedview
     id="base"
     pagecolor="#ffffff"
     bordercolor="#666666"
     borderopacity="1.0"
     inkscape:pageopacity="0.0"
     inkscape:pageshadow="2"
     inkscape:zoom="32.000001"
     inkscape:cx="8.8176766"
     inkscape:cy="11.142081"
     inkscape:document-units="px"
     inkscape:current-layer="svg13094"
     showgrid="true"
     inkscape:snap-bbox="true"
     inkscape:bbox-paths="true"
     inkscape:bbox-nodes="true"
     inkscape:snap-bbox-edge-midpoints="true"
     inkscape:snap-bbox-midpoints="true"
     inkscape:object-paths="true"
     inkscape:snap-intersection-paths="true"
     inkscape:object-nodes="true"
     inkscape:snap-smooth-nodes="true"
     inkscape:snap-midpoints="true"
     inkscape:snap-object-midpoints="true"
     inkscape:snap-center="true"
     showguides="true"
     inkscape:guide-bbox="true"
     inkscape:window-width="1920"
     inkscape:window-height="1023"
     inkscape:window-x="-10"
     inkscape:window-y="35"
     inkscape:window-maximized="1"
     inkscape:snap-global="true"
     fit-margin-top="0"
     fit-margin-left="0"
     fit-margin-right="0"
     fit-margin-bottom="0"
     showborder="true"
     inkscape:showpageshadow="false">
    <inkscape:grid
       type="xygrid"
       id="grid3075"
       empspacing="5"
       visible="true"
       enabled="true"
       snapvisiblegridlinesonly="true"
       originx="1.6362304e-08px"
       originy="4.9999976px" />
  </sodipodi:namedview>
  <defs
     id="defs13096" />
  <metadata
     id="metadata13099">
    <rdf:RDF>
      <cc:Work
         rdf:about="">
        <dc:format>image/svg+xml</dc:format>
        <dc:type
           rdf:resource="http://purl.org/dc/dcmitype/StillImage" />
        <dc:title />
      </cc:Work>
    </rdf:RDF>
  </metadata>
  <path
     style="color:#000000;fill:#434a54;fill-opacity:0.6745098;fill-rule:nonzero;stroke:none;stroke-width:2;marker:none;visibility:visible;display:inline;overflow:visible;enable-background:accumulate"
     d="M 4 3 C 3.446 3 3 3.446 3 4 L 3 6 C 3 6.554 3.446 7 4 7 L 6 7 C 6.554 7 7 6.554 7 6 L 7 4 C 7 3.446 6.554 3 6 3 L 4 3 z M 5 4 C 5.5522847 4 6 4.4477153 6 5 C 6 5.5522847 5.5522847 6 5 6 C 4.4477153 6 4 5.5522847 4 5 C 4 4.4477153 4.4477153 4 5 4 z M 9 4 L 9 5 L 10 5 L 10 4 L 9 4 z M 10 5 L 10 6 L 11 6 L 11 5 L 10 5 z M 11 5 L 12 5 L 12 4 L 11 4 L 11 5 z M 12 5 L 12 6 L 13 6 L 13 5 L 12 5 z M 13 5 L 14 5 L 14 4 L 13 4 L 13 5 z M 14 5 L 14 6 L 15 6 L 15 5 L 14 5 z M 15 5 L 16 5 L 16 4 L 15 4 L 15 5 z M 16 5 L 16 6 L 17 6 L 17 5 L 16 5 z M 17 5 L 18 5 L 18 4 L 17 4 L 17 5 z M 18 5 L 18 6 L 19 6 L 19 5 L 18 5 z M 19 5 L 20 5 L 20 4 L 19 4 L 19 5 z M 20 5 L 20 6 L 21 6 L 21 5 L 20 5 z M 4 10 C 3.446 10 3 10.446 3 11 L 3 13 C 3 13.554 3.446 14 4 14 L 6 14 C 6.554 14 7 13.554 7 13 L 7 11 C 7 10.446 6.554 10 6 10 L 4 10 z M 5 11 C 5.5522847 11 6 11.447715 6 12 C 6 12.552285 5.5522847 13 5 13 C 4.4477153 13 4 12.552285 4 12 C 4 11.447715 4.4477153 11 5 11 z M 9 11 L 9 12 L 10 12 L 10 11 L 9 11 z M 10 12 L 10 13 L 11 13 L 11 12 L 10 12 z M 11 12 L 12 12 L 12 11 L 11 11 L 11 12 z M 12 12 L 12 13 L 13 13 L 13 12 L 12 12 z M 13 12 L 14 12 L 14 11 L 13 11 L 13 12 z M 14 12 L 14 13 L 15 13 L 15 12 L 14 12 z M 15 12 L 16 12 L 16 11 L 15 11 L 15 12 z M 16 12 L 16 13 L 17 13 L 17 12 L 16 12 z M 17 12 L 18 12 L 18 11 L 17 11 L 17 12 z M 18 12 L 18 13 L 19 13 L 19 12 L 18 12 z M 19 12 L 20 12 L 20 11 L 19 11 L 19 12 z M 20 12 L 20 13 L 21 13 L 21 12 L 20 12 z M 4 17 C 3.446 17 3 17.446 3 18 L 3 20 C 3 20.554 3.446 21 4 21 L 6 21 C 6.554 21 7 20.554 7 20 L 7 18 C 7 17.446 6.554 17 6 17 L 4 17 z M 5 18 C 5.5522847 18 6 18.447716 6 19 C 6 19.552285 5.5522847 20 5 20 C 4.4477153 20 4 19.552285 4 19 C 4 18.447716 4.4477153 18 5 18 z M 9 18 L 9 19 L 10 19 L 10 18 L 9 18 z M 10 19 L 10 20 L 11 20 L 11 19 L 10 19 z M 11 19 L 12 19 L 12 18 L 11 18 L 11 19 z M 12 19 L 12 20 L 13 20 L 13 19 L 12 19 z M 13 19 L 14 19 L 14 18 L 13 18 L 13 19 z M 14 19 L 14 20 L 15 20 L 15 19 L 14 19 z M 15 19 L 16 19 L 16 18 L 15 18 L 15 19 z M 16 19 L 16 20 L 17 20 L 17 19 L 16 19 z M 17 19 L 18 19 L 18 18 L 17 18 L 17 19 z M 18 19 L 18 20 L 19 20 L 19 19 L 18 19 z M 19 19 L 20 19 L 20 18 L 19 18 L 19 19 z M 20 19 L 20 20 L 21 20 L 21 19 L 20 19 z "
     id="path3915" />
  <path
     style="color:#000000;fill:#d1d4d6;fill-opacity:0.74329164;fill-rule:nonzero;stroke:none;stroke-width:2;marker:none;visibility:visible;display:inline;overflow:visible;enable-background:accumulate"
     d="M 5 4 C 4.4477153 4 4 4.4477153 4 5 C 4 5.5522847 4.4477153 6 5 6 C 5.5522847 6 6 5.5522847 6 5 C 6 4.4477153 5.5522847 4 5 4 z M 10 4 L 10 5 L 11 5 L 11 4 L 10 4 z M 11 5 L 11 6 L 12 6 L 12 5 L 11 5 z M 12 5 L 13 5 L 13 4 L 12 4 L 12 5 z M 13 5 L 13 6 L 14 6 L 14 5 L 13 5 z M 14 5 L 15 5 L 15 4 L 14 4 L 14 5 z M 15 5 L 15 6 L 16 6 L 16 5 L 15 5 z M 16 5 L 17 5 L 17 4 L 16 4 L 16 5 z M 17 5 L 17 6 L 18 6 L 18 5 L 17 5 z M 18 5 L 19 5 L 19 4 L 18 4 L 18 5 z M 19 5 L 19 6 L 20 6 L 20 5 L 19 5 z M 20 5 L 21 5 L 21 4 L 20 4 L 20 5 z M 10 5 L 9 5 L 9 6 L 10 6 L 10 5 z M 5 11 C 4.4477153 11 4 11.447715 4 12 C 4 12.552285 4.4477153 13 5 13 C 5.5522847 13 6 12.552285 6 12 C 6 11.447715 5.5522847 11 5 11 z M 10 11 L 10 12 L 11 12 L 11 11 L 10 11 z M 11 12 L 11 13 L 12 13 L 12 12 L 11 12 z M 12 12 L 13 12 L 13 11 L 12 11 L 12 12 z M 13 12 L 13 13 L 14 13 L 14 12 L 13 12 z M 14 12 L 15 12 L 15 11 L 14 11 L 14 12 z M 15 12 L 15 13 L 16 13 L 16 12 L 15 12 z M 16 12 L 17 12 L 17 11 L 16 11 L 16 12 z M 17 12 L 17 13 L 18 13 L 18 12 L 17 12 z M 18 12 L 19 12 L 19 11 L 18 11 L 18 12 z M 19 12 L 19 13 L 20 13 L 20 12 L 19 12 z M 20 12 L 21 12 L 21 11 L 20 11 L 20 12 z M 10 12 L 9 12 L 9 13 L 10 13 L 10 12 z M 5 18 C 4.4477153 18 4 18.447716 4 19 C 4 19.552285 4.4477153 20 5 20 C 5.5522847 20 6 19.552285 6 19 C 6 18.447716 5.5522847 18 5 18 z M 10 18 L 10 19 L 11 19 L 11 18 L 10 18 z M 11 19 L 11 20 L 12 20 L 12 19 L 11 19 z M 12 19 L 13 19 L 13 18 L 12 18 L 12 19 z M 13 19 L 13 20 L 14 20 L 14 19 L 13 19 z M 14 19 L 15 19 L 15 18 L 14 18 L 14 19 z M 15 19 L 15 20 L 16 20 L 16 19 L 15 19 z M 16 19 L 17 19 L 17 18 L 16 18 L 16 19 z M 17 19 L 17 20 L 18 20 L 18 19 L 17 19 z M 18 19 L 19 19 L 19 18 L 18 18 L 18 19 z M 19 19 L 19 20 L 20 20 L 20 19 L 19 19 z M 20 19 L 21 19 L 21 18 L 20 18 L 20 19 z M 10 19 L 9 19 L 9 20 L 10 20 L 10 19 z "
     id="path3917" />
</svg>
